X:1
T:Title
%%score 1 { ( 2 5 ) | ( 3 4 ) }
L:1/8
Q:1/4=100
M:4/4
K:Eb
V:1 treble nm="Akkordion"
V:2 treble nm="Grand Piano"
V:5 treble 
V:3 bass 
V:4 bass 
V:1
 .B2 GA B2 GA | BeGA B4 | c2 BG c2 BG |[M:19/16] F-<FBcB/-B/-B/-B/-B/-B-<B z | %4
w: Mendelssohn * * * * *||||
[M:4/4] .B2 GA B2 GA | BeGA B4 | c2 Bc A2 GA |[M:19/16] F-<FEFE/-E/-E/-E/-E/-E-<E z |] %8
w: ||||
V:2
 B2 GA B2 GA | BeGA [EB]2- [G,EB]2 | c2 BG c2 BG | %3
[M:19/16] [B,DF]-<[B,DF][DB][Ec][DB]-<[DB] z/ z/ z/ z/ z/ z |[M:4/4] B2 GA B2 GA | %5
 BeGA [EB]2- [G,EB]2 | c2 Bc [CEA]2 .[CEG]2 | %7
[M:19/16] [A,DF]-<[A,DF][CE][DF][G,E]/-[G,E]/-[G,E]/-[G,E]/-[G,E]/-[G,E]-<[G,E] z |] %8
V:3
 z2 [E,E]2 z2 [E,E]2 | z2 [B,E]2 z4 | z2 E2 z2 .G,2 | %3
[M:19/16] z/ z/ z F,-<F, z/ z/ z/ z/ z/ z/ z/ z/ z/ z |[M:4/4] z2 [E,E]2 z2 [E,E]2 | z2 [B,E]2 z4 | %6
 [A,E]2 G,_G, F,2 z A |[M:19/16] z/ z/ z G,A,E,/-E,/-E,/-E,/-E,/-E,-<E, z |] %8
V:4
 [E,G,E]2 z F, [E,G,E]2 z F, | [E,G,E]2 E,F, G,2 E,2 | [E,A,E]2 [E,G,]E, [E,A,E]2 [E,E]-[E,B,E] | %3
[M:19/16] B,,-<B,,B,,=A,,[B,,F,]-<[B,,F,] z/ z/ z/ z/ z/ z |[M:4/4] [E,G,E]2 z F, [E,G,E]2 z F, | %5
 [E,G,E]2 E,F, G,2 E,2 | z2 [B,E]2 z2 A,,2 | %7
[M:19/16] B,,/-B,,/-B,,/-B,,/-B,,-<B,, z/ z/ z/ z/ z/ z/ z/ z/ z/ z |] %8
V:5
 x8 | z4 B,2 z2 | x8 |[M:19/16] x19/2 |[M:4/4] x8 | z4 B,2 z2 | x8 |[M:19/16] x19/2 |] %8

